!!!SOCIAL_FUNCTION: songs of the wolf society
!!!SOCIAL_FUNCTION2: Wolf Society
!!!PDT:	1929
!!!LING_GROUP: Caddoan
!!!LANG: Non-Tone
!!!REG: Oklahoma
!!!COM: Anon.
!!!OTL: It Is Mine, This Country Wide
!!!ODT: <1920//
!!!MPN: Tutukrawitsu [He overtook the enemy, Wicita Blain]
!!!MLC: Pawnee, Oklahoma, United States of America
!! Song was recorded either 1919 or 1920.
!!!AGN: monody
!!!AMT: irregular
!!!RWG: Transcribed pitches, durations, and meters are only approximate.
!! Drum not recorded
**kern	**silbe	**words	**words
*ICvox	*LPawnee	*LPawnee	*LEnglish
*Imale	*	*	*
*clefF4	*	*	*
*k[b-]	*	*	*
*MM80	*MM80	*MM80	*MM80
*[A,B,A]	*[A,B,A]	*[A,B,A]	*[A,B,A]
*>A	*>A	*>A	*>A
*M2/4	*M2/4	*M2/4	*M2/4
=!|:1	=!|:1	=!|:1	=!|:1
8.f	Ha	Ha	Yonder
16d	i	i	there
(8.c	ra	ra	coming
16A)	|	.	.
=2	=2	=2	=2
2f	ha	ha	yonder
=3	=3	=3	=3
(12f	ha	ha	yonder
12d)	|	.	.
12c	i	i	there
(8.A	ra	ra	coming
16F)	|	.	.
=4	=4	=4	=4
2c	ha	ha	yonder
*M3/4	*M3/4	*M3/4	*M3/4
=5	=5	=5	=5
(16c	ha	ha	yonder
16A	|	.	.
16A	|	.	.
16F)	|	.	.
(16A	ha	ha	yonder
16F)	|	.	.
8F	a	.	.
8F	i	i	there
8F	ra	ra	coming
*M2/4	*M2/4	*M2/4	*M2/4
=6	=6	=6	=6
(16c	ha	ha	yonder
16A	|	.	.
16c	|	.	.
16A)	|	.	.
8A	i	i	there
8A	ra	ra	coming
=7	=7	=7	=7
8F	ta	ta	I
8F	ti-	tiri	mine
4F	-ri	.	.
=8	=8	=8	=8
8F	ru-	rura	land
8F	-ra	.	.
12F	ra-	rawa	wide
12F	-a-	.	.
12F	-wa	.	.
=9	=9	=9	=9
2F	he	.	.
=10	=10	=10	=10
[2F	he	.	.
=11	=11	=11	=11
4.F]	|	.	.
8F	pits	pits	hateful
=12	=12	=12	=12
8.c	ka	ka	consider
16B-	si-	siratu	hurtful
(8.G	-ra-	.	.
16F)	|	.	.
=13	=13	=13	=13
2c	-tu	.	.
*M3/4	*M3/4	*M3/4	*M3/4
=14	=14	=14	=14
(12A	ru-	ruti	did
12F)	|	.	.
12F	-ti	.	.
(8.F	kux	kux	my
16E)	|	.	.
8F	ru-	rura	land
8F	-ra	.	.
*M2/4	*M2/4	*M2/4	*M2/4
=15	=15	=15	=15
(16c	a	.	.
16A	|	.	.
16c	|	.	.
16A)	|	.	.
8A	ra	ra	strangely
8A	wi	wi	became
=16	=16	=16	=16
8F	ta	ta	I
8F	ti-	tiri	mine
4F	-ri	.	.
=17	=17	=17	=17
8F	ru-	rura	land
8F	-ra	.	.
12F	ra-	rawa	wide
12F	-a-	.	.
12F	-wa	.	.
=18	=18	=18	=18
2F	?	?	?
=19	=19	=19	=19
8.F	?	?	?
16D	?	?	?
8.C	?	?	?
16AA	?	?	?
=20	=20	=20	=20
2F	?	?	?
=21	=21	=21	=21
12F	?	?	?
12C	?	?	?
12C	?	?	?
8.AA	?	?	?
16FF	?	?	?
=22	=22	=22	=22
2C	?	?	?
=23	=23	=23	=23
(12C	?	?	?
12AA	?	?	?
12AA	?	?	?
4FF	?	?	?
=24	=24	=24	=24
2FF	?	?	?
=25	=25	=25	=25
2FF	?	?	?
!! Fine
*>B	*>B	*>B	*>B
*M3/4	*M3/4	*M3/4	*M3/4
=26	=26	=26	=26
2.F	?	?	?
=:|!	=:|!	=:|!	=:|!
*-	*-	*-	*-
!!!HAO: [no description]
!!!HTX: [no free translation]
!!!CNT: Pawnee
!!!TXO: Pawnee
!!!OCY: United States
!!!OCL: Frances Densmore
!!!YOR: Frances Densmore, "Pawnee Music"
!!!YOR: Bulletin 93, page 58, No. 30
!!!PPR: Smithsonian Institution, Bureau of American Ethnology
!!!PPR: Government Printing Office
!!!PDT: 1926
!!!PPP: Washington, DC, United States of America
!!!YEC: Electronic Copyright 2000 David Huron
!!!YER: September 2000
!!!YEN: United States of America
!!!ENC: David Huron
!!!RDT: September 3, 2000
!!!EEV: Release 1.0
!!!AIN: vox
